assets/icons/qvision/replay_5.svg

<svg xmlns="http://www.w3.org/2000/svg" enable-background="new 0 0 24 24" height="24" viewBox="0 0 24 24" width="24"><g><rect fill="none" height="24" width="24"/></g><g><g><path d="M12,5V1L7,6l5,5V7c3.31,0,6,2.69,6,6s-2.69,6-6,6s-6-2.69-6-6H4c0,4.42,3.58,8,8,8s8-3.58,8-8S16.42,5,12,5z"/><g><path d="M10.69,13.9l0.25-2.17h2.39v0.71h-1.7l-0.11,0.92c0.03-0.02,0.07-0.03,0.11-0.05s0.09-0.04,0.15-0.05 s0.12-0.03,0.18-0.04s0.13-0.02,0.2-0.02c0.21,0,0.39,0.03,0.55,0.1s0.3,0.16,0.41,0.28s0.2,0.27,0.25,0.45s0.09,0.38,0.09,0.6 c0,0.19-0.03,0.37-0.09,0.54s-0.15,0.32-0.27,0.45s-0.27,0.24-0.45,0.31s-0.39,0.12-0.64,0.12c-0.18,0-0.36-0.03-0.53-0.08 s-0.32-0.14-0.46-0.24s-0.24-0.24-0.32-0.39s-0.13-0.33-0.13-0.53h0.84c0.02,0.18,0.08,0.32,0.19,0.41s0.25,0.15,0.42,0.15 c0.11,0,0.2-0.02,0.27-0.06s0.14-0.1,0.18-0.17s0.08-0.15,0.11-0.25s0.03-0.2,0.03-0.31s-0.01-0.21-0.04-0.31 s-0.07-0.17-0.13-0.24s-0.13-0.12-0.21-0.15s-0.19-0.05-0.3-0.05c-0.08,0-0.15,0.01-0.2,0.02s-0.11,0.03-0.15,0.05 s-0.08,0.05-0.12,0.07s-0.07,0.06-0.1,0.09L10.69,13.9z"/></g></g></g></svg>

<svg width="24" height="24" viewBox="0 0 24 24" fill="none" xmlns="http://www.w3.org/2000/svg">
<g clip-path="url(#clip0_147_1624)">
<path d="M12 5V1L7 6L12 11V7C15.31 7 18 9.69 18 13C18 16.31 15.31 19 12 19C8.69 19 6 16.31 6 13H4C4 17.42 7.58 21 12 21C16.42 21 20 17.42 20 13C20 8.58 16.42 5 12 5Z" fill="#323232"/>
<path d="M10.69 13.9L10.94 11.73H13.33V12.44H11.63L11.52 13.36C11.55 13.34 11.59 13.33 11.63 13.31C11.67 13.29 11.72 13.27 11.78 13.26C11.84 13.25 11.9 13.23 11.96 13.22C12.02 13.21 12.09 13.2 12.16 13.2C12.37 13.2 12.55 13.23 12.71 13.3C12.87 13.37 13.01 13.46 13.12 13.58C13.23 13.7 13.32 13.85 13.37 14.03C13.42 14.21 13.46 14.41 13.46 14.63C13.46 14.82 13.43 15 13.37 15.17C13.31 15.34 13.22 15.49 13.1 15.62C12.98 15.75 12.83 15.86 12.65 15.93C12.47 16 12.26 16.05 12.01 16.05C11.83 16.05 11.65 16.02 11.48 15.97C11.31 15.92 11.16 15.83 11.02 15.73C10.88 15.63 10.78 15.49 10.7 15.34C10.62 15.19 10.57 15.01 10.57 14.81H11.41C11.43 14.99 11.49 15.13 11.6 15.22C11.71 15.31 11.85 15.37 12.02 15.37C12.13 15.37 12.22 15.35 12.29 15.31C12.36 15.27 12.43 15.21 12.47 15.14C12.51 15.07 12.55 14.99 12.58 14.89C12.61 14.79 12.61 14.69 12.61 14.58C12.61 14.47 12.6 14.37 12.57 14.27C12.54 14.17 12.5 14.1 12.44 14.03C12.38 13.96 12.31 13.91 12.23 13.88C12.15 13.85 12.04 13.83 11.93 13.83C11.85 13.83 11.78 13.84 11.73 13.85C11.68 13.86 11.62 13.88 11.58 13.9C11.54 13.92 11.5 13.95 11.46 13.97C11.42 13.99 11.39 14.03 11.36 14.06L10.69 13.9Z" fill="#323232"/>
</g>
<defs>
<clipPath id="clip0_147_1624">
<rect width="24" height="24" fill="white"/>
</clipPath>
</defs>
</svg>
